packages/calcite-ui-icons/icons/envelope-32-f.svg

<?xml version="1.0" encoding="UTF-8"?><svg id="icons" xmlns="http://www.w3.org/2000/svg" viewBox="0 0 32 32"><path d="M28,6H4c-1.10352,0-2,.89838-2,2v16c0,1.10345.89648,2,2,2h24c1.10352,0,2-.89655,2-2V8c0-1.10162-.89648-2-2-2ZM28.24371,24.95074l-9.4964-9.4964-2.74731,2.15308-2.74731-2.15308L3.75629,24.95074c-.35089-.09058-.61646-.3562-.70703-.70703l9.41071-9.41071L3.13611,7.52582c.17041-.30835.487-.52582.86389-.52582h.08667l11.91333,9.33691,11.91339-9.33691h.08661c.37695,0,.69354.21747.86395.52588l-9.32385,7.30719,9.41064,9.41064c-.09058.35083-.35614.61646-.70703.70703Z"/><rect width="32" height="32" style="fill:none;"/></svg>

<svg xmlns="http://www.w3.org/2000/svg" viewBox="0 0 32 32"><path d="M28 6H4c-1.104 0-2 .898-2 2v16c0 1.103.896 2 2 2h24c1.104 0 2-.897 2-2V8c0-1.102-.896-2-2-2m.244 18.95-9.497-9.496L16 17.607l-2.747-2.153-9.497 9.497a.97.97 0 0 1-.707-.707l9.411-9.411-9.324-7.307A.99.99 0 0 1 4 7h.087L16 16.337 27.913 7H28c.377 0 .694.217.864.526l-9.324 7.307 9.41 9.41a.97.97 0 0 1-.706.708"/><path d="M0 0h32v32H0z" style="fill:none"/></svg>
